!!!!SEGMENT: pl-kk--kk-i-10--003_pekiel-bartlomiej--assumpta-est-maria.krn
!!!cenid: 16xx:1190
!!!COM: Pękiel, Bartłomiej
!!!COM-rismid: pe30105642
!!!CDT: <1633-~1670
!!!CNT: Polish
!!!OTL: Assumpta est Maria
!!!PDT:
!!!AGN: Sacred
!!!SMS-siglum: PL-Kk
!!!SMS-shelfmark: Kk.I.10
!!!SMS-shelfwork: 003 W
!!!SMS-variant:
!!!SMS-altvar:
!!!NIFC-rismid: 1001151831
!!!URL-scan: http://repozytorium.nifc.pl/skany/pl-kk-nut--i-10
!!!ONB-nifc: UWAGA: T1 (skan 0011), T2 (0061), B (0110). Następny utwór: Quae est ista
!!!key:
**kern	**text	**kern	**text	**kern	**text
*part3	*part3	*part2	*part2	*part1	*part1
*staff3	*staff3	*staff2	*staff2	*staff1	*staff1
*Iempty	*	*Iempty	*	*Iempty	*
*I"[Bas]	*	*I"2bus	*	*I"Primus	*
*I'B	*	*I'T 2	*	*I'T 1	*
*clefF4	*	*clefC4	*	*clefC4	*
*k[b-]	*	*k[b-]	*	*k[b-]	*
*B-:	*	*B-:	*	*B-:	*
*M2/1	*	*M2/1	*	*M2/1	*
*met(C)	*	*met(C)	*	*met(C)	*
*MM240	*	*MM240	*	*MM240	*
=1	=1	=1	=1	=1	=1
*	*	*	*	*2\right	*
!	!	!	!	!LO:TX:a:t=Primus	!
0r	.	1r	.	1d\	As-
.	.	1d\	Aſ-	2.B-\	-sum-
.	.	.	.	4A\	-pta
=2-	=2-	=2-	=2-	=2-	=2-
*	*	*2\right	*	*	*
1GG/	As-	2.B-\	-sum-	2G/	eſt
*	*	*	*	*	*ij
.	.	.	.	2d\	As-
.	.	4A/	-pta	.	.
2.E-X\	-sum-	0G/	eſt	2e-X\	-sum-
.	.	.	.	2B-\	-pta
4D/	-pta	.	.	.	.
=3-	=3-	=3-	=3-	=3-	=3-
2C/	eſt	.	.	4c\	eſt
*	*	*	*	*	*Xij
.	.	.	.	4G/	Ma-
2C/	Ma-	.	.	1c\	-ri-
1G\	-ri-	0r	.	.	.
!	!	!	!	!LO:N:acc=#	!
.	.	.	.	2Bn\	.
=4-	=4-	=4-	=4-	=4-	=4-
*	*	*	*	*lig	*
2G\	-a	.	.	1e-X\	.
2A\	in	.	.	.	.
*lig	*	*	*	*	*
1B-\	cae-	1r	.	1d\	.
*	*	*	*	*Xlig	*
=5-	=5-	=5-	=5-	=5-	=5-
1F\	.	1f\	Aſ-	2c\	-a
.	.	.	.	2f\	Aſ-
*Xlig	*	*	*	*	*
2BB-/	-lum	2.d\	-sum-	4f\	-sum-
.	.	.	.	4eny\	.
2B-\	Aſ-	.	.	2.d\	.
.	.	4c\	.	.	.
=6-	=6-	=6-	=6-	=6-	=6-
2.G\	-sum-	4B-\	.	.	.
.	.	4c\	.	4c\	.
.	.	4.d\	.	4B-y\	.
4F\	-pta	.	.	4A\	-pta
.	.	8d\	-pta	.	.
!	!	!LO:TX:t=P:global:problem=oddech jako rozdzielacz słów	!	!	!
2E-X\	eſt	2e-X,<\	eſt	1G/	eſt
*	*	*	*ij	*	*
2E-\	.	2B-\	Aſ-	.	.
!	!	!	!	!LO:LB:g=original	!
=7-	=7-	=7-	=7-	=7-	=7-
1C/,<	.	2.c\	-sum-	2G/	Aſ-
.	.	.	.	(2c\	-sum-
.	.	4B-\	.	.	.
!LO:LB:g=original	!	!	!	!	!
1F\	Aſ-	4A/	.	4c\)	.
.	.	4G/	.	4B-\	.
.	.	2F/	.	2.A\	.
!	!	!LO:LB:g=original	!	!	!
=8-	=8-	=8-	=8-	=8-	=8-
2.D/	-sum-	2f\	.	.	.
.	.	.	.	4G/	.
.	.	2.d\	.	4F/	.
4D/	-pta	.	.	4E/	-pta
2BB-/	eſt	.	.	2D/	eſt
.	.	4c\	.	.	.
2BB-/	Ma-	2.B-\	.	2d\	Ma-
=9-	=9-	=9-	=9-	=9-	=9-
2.E-X\	-ri-	.	.	1B-\	-ri-
.	.	4A\	-pta	.	.
.	.	1G/	eſt	.	.
*	*	*	*Xij	*	*
4D/	.	.	.	.	.
2C/	-a	.	.	4c\	-a
.	.	.	.	4c\	Ma-
2BBn/	in	2G/	Ma-	4g\	-ri-
.	.	.	.	4f\	.
=10-	=10-	=10-	=10-	=10-	=10-
0C/	cae-	1G/	-ri-	2.e-X\	.
.	.	.	.	4d\	.
.	.	1G/	-a	4c\	.
!	!	!	!	!LO:N:acc=#	!
.	.	.	.	4Bn\	.
.	.	.	.	2c\	.
=11-	=11-	=11-	=11-	=11-	=11-
!	!	!	!	!LO:N:acc=#	!
2GG,</	-lum	1r	.	1Bn\	-a
2GG/	in	.	.	.	.
2.C/	cae-	2G/	in	1.c\	in
.	.	2.c\	cae-	.	.
4BB-y/	.	.	.	.	.
=12-	=12-	=12-	=12-	=12-	=12-
4AA/	.	.	.	.	.
4GG/	.	4B-\	.	.	.
2FF/	-lum	2.A/	.	2.f\	cae-
1FF/	in	.	.	.	.
.	.	4G/	.	8e-X\L	.
.	.	.	.	8d\J	.
.	.	2A/	.	2c\	.
=13-	=13-	=13-	=13-	=13-	=13-
2BB-/	in	2.d\	.	2.B-\	.
4B-\	cae-	.	.	.	.
4A\	.	4c\	.	4c\	.
2G\	.	2B-\	.	0.d\	.
!LO:TX:t=P:problem=♯above	!	!	!	!	!
2F#X\	.	2A\	.	.	.
!LO:LB:g=original	!	!	!	!	!
=14-	=14-	=14-	=14-	=14-	=14-
0G\	.	4d\	.	.	.
.	.	4c\	.	.	.
.	.	4B-\	.	.	.
.	.	4A\	.	.	.
!	!	!LO:LB:g=original	!	!	!
.	.	1B-\	.	.	.
=15-	=15-	=15-	=15-	=15-	=15-
1D\	-lum	1A\	-lum	1d\	-lum
1ryy	.	1ryy	.	1ryy	.
=16-	=16-	=16-	=16-	=16-	=16-
*M3/1	*	*M3/1	*	*M3/1	*
0D\	Gau-	0A\	Gau-	0d\	Gau-
1G\	-dent	1B-\	-dent	1d\	-dent
=17-	=17-	=17-	=17-	=17-	=17-
1.Fny\	An-	1.c\	An-	1.f\	An-
2F\	-ge-	2c\	-ge-	2f\	-ge-
1F\	-li	1c\	-li	1f\	li
=18-	=18-	=18-	=18-	=18-	=18-
*	*ij	*	*ij	*	*ij
0F\	Gau-	0A\	Gau-	0c\	Gau-
1D\	-dent	1B-X\	-dent	1d\	-dent
=19-	=19-	=19-	=19-	=19-	=19-
1.C/	An-	1.c\	An-	1.eny\	An-
2C/	-ge-	2c\	-ge-	2e\	-ge-
1C/	-li	1c\	-li	1e\	-li
*	*Xij	*	*Xij	*	*Xij
=20-	=20-	=20-	=20-	=20-	=20-
!LO:N:vis=00	!	!	!	!	!
00.r	.	2C/	Gau-	1.e\	Ga[u]-
.	.	2D/	.	.	.
.	.	2E/	.	.	.
.	.	2F/	.	4d\	.
.	.	.	.	4c\	.
!	!	!	!	!LO:N:acc=#	!
.	.	1G/	.	1Bn\	.
=21-	=21-	=21-	=21-	=21-	=21-
.	.	1E/	-dent	1c\	-dent
!	!	!	!	!LO:N:acc=#	!
.	.	1.G/	An-	1.Bn\	An-
.	.	2G/	-ge-	2B\	-ge-
!	!	!LO:LB:g=original	!	!	!
*	*	*	*	*	*LO:LB:g=original
=22-	=22-	=22-	=22-	=22-	=22-
!LO:N:vis=0	!	!	!	!	!
0.r	.	1C/	-li	1c\	-li
*	*	*	*	*	*ij
.	.	2C/	Gau-	2c\	Gau-
.	.	2D/	.	4B-y\	.
.	.	.	.	4A\	.
.	.	2E/	.	2G/	.
.	.	2F/	.	2A\	.
=23-	=23-	=23-	=23-	=23-	=23-
2GG/	Gau-	0G/	.	2B-\	.
2AA/	.	.	.	2c\	.
2BB-/	.	.	.	2d\	.
2GG/	.	.	.	4c\	.
.	.	.	.	4B-\	.
1D\	.	1A\	-dent	1A\	.
=24-	=24-	=24-	=24-	=24-	=24-
*	*	*lig	*	*	*
1BB-/	-dent	1B-\	An-	1d\	-dent
1.D\	An-	1.A\	.	1.d\	An-
*	*	*Xlig	*	*	*
2D/	-ge-	2A/	-ge-	2d\	-ge
!LO:LB:g=original	!	!	!	!	!
=25-	=25-	=25-	=25-	=25-	=25-
0.G\	-li	1B-\	-li	1d\	-li
*	*	*	*ij	*	*Xij
.	.	2G/	Gau-	1r	.
.	.	2A/	.	.	.
.	.	2B-\	.	1r	.
.	.	2c\	.	.	.
=26-	=26-	=26-	=26-	=26-	=26-
*	*ij	*	*	*	*
!	!	!	!	!LO:N:vis=00	!
2D/	Gau-	2d\	-dent	00.r	.
2Eny\	.	4c\	.	.	.
.	.	4B-\	.	.	.
2F\	.	2A\	An-	.	.
!	!	!LO:TX:t=P:problem=♯above	!	!	!
!	!	!LO:N:acc=#	!	!	!
2G\	.	2Bn\	.	.	.
!	!	!LO:TX:t=P:problem=♯above	!	!	!
1A\	-dent	1c#X\	.	.	.
=27-	=27-	=27-	=27-	=27-	=27-
1F\	An-	1d\	.	.	.
1.A\	.	1.c#X\	.	.	.
2AA/	-ge-	2c#\	-ge-	.	.
!	!	!LO:LB:g=original	!	!	!
=28-	=28-	=28-	=28-	=28-	=28-
0.D\	-li	1d\,<	-li	2D/	Gau-
*	*Xij	*	*Xij	*	*
.	.	.	.	2E/	.
.	.	2d\	gau-	2F/	.
.	.	4cny\	.	2G/	.
.	.	4B-y\	.	.	.
.	.	1A\	.	2A/	.
.	.	.	.	2D/	-dent
!	!	!	!	!LO:LB:g=original	!
=29-	=29-	=29-	=29-	=29-	=29-
*	*	*col	*	*	*ij
2BB-/	Gau-	1B-\	.	1.d\	Gau-
2C/	.	.	.	.	.
2D/	.	0F/	-dent	.	.
2E\	.	.	.	4c\	.
.	.	.	.	4B-\	.
1F\	.	.	.	1A\	.
*	*	*Xcol	*	*	*
=30-	=30-	=30-	=30-	=30-	=30-
1BB-/	-dent	0F/	An-	1B-\	-dent
*	*	*	*	*	*Xij
1.F\	An-	.	.	1.A\	An-
.	.	1F/	-ge-	.	.
2F\	-ge-	.	.	2A\	-ge-
=31-	=31-	=31-	=31-	=31-	=31-
*M2/1	*	*M2/1	*	*M2/1	*
*met(C)	*	*met(C)	*	*met(C)	*
4BB-/	-li	2B-\	-li	4B-\	-li
4B-\	lau-	.	.	4d\	Lau-
4A\	-dan-	1r	.	4c\	-dan-
4F\	-tes	.	.	4B-\	-tes
!LO:LB:g=original	!	!	!	!	!
4G\	be-	.	.	8.B-\	be-
.	.	.	.	16B-\	-ne-
4A\	-ne-	.	.	4.f\	-di-
4.B-\	-di-	2r	.	.	.
.	.	.	.	8e\L	.
.	.	.	.	8d\J	.
8A\	-cunt	.	.	8c\	-cunt
=32-	=32-	=32-	=32-	=32-	=32-
4.G\	Do-	4r	.	4.B-\	Do-
.	.	4B-\	Lau-	.	.
8G\	-mi-	.	.	8B-\	-mi-
2F,<\	-num	4A/	-dan-	2c\	-num
.	.	4F/	-tes	.	.
*	*ij	*	*	*	*
2C/	lau-	4G/	be-	4r	.
*	*	*	*	*	*ij
.	.	4A/	-ne-	4e-X\	Lau-
4BB-/	-dan-	2B-\	-di-	4d\	-dan-
4GG/	-tes	.	.	4B-\	-tes
=33-	=33-	=33-	=33-	=33-	=33-
4AA/	be-	2A/	-cunt	4.c\	be-
4FF/	-ne-	.	.	.	.
.	.	.	.	8A/	.
4.C/	-di-	2r	.	8G/L	-ne-
.	.	.	.	8A/	.
.	.	.	.	8B-/	.
8BB-/	-cunt	.	.	8G/J	.
4.AA/	Do-	2c\	lau-	8A\L	.
.	.	.	.	8B-\	.
.	.	.	.	8.c\J	.
8AA/	-mi-	.	.	.	.
.	.	.	.	16c\	-di-
4GG,</	-num	4B-\	-dan-	2d\	-cunt
*	*Xij	*	*	*	*Xij
4G\	lau-	4G/	-tes	.	.
!	!	!LO:LB:g=original	!	!	!
=34-	=34-	=34-	=34-	=34-	=34-
4F\	-dan-	4A\	be-	1r	.
!	!	!LO:N:acc=#	!	!	!
!	!	!LO:TX:t=P:problem=♯above	!	!	!
4D\	-tes	4Bn\	-ne-	.	.
4E\	be-	4c\	-di-	.	.
4F#X\	-ne-	4A\	-cunt	.	.
8.G\	-di-	(2B\	Do-	4.d\	Be-
16D\	-cunt	.	.	.	.
2G\	Do-	.	.	.	.
.	.	.	.	8d\	-ne-
.	.	4.A\)	.	4c\	-di-
4F#\	-mi-	.	.	4A/	-cunt
.	.	8A\	-mi-	.	.
=35-	=35-	=35-	=35-	=35-	=35-
*custos:G	*	*	*	*	*
4G\	-num	4G,</	-num	8B-\L	Do-
.	.	.	.	8c\J	.
8G\L	Do-	8B-y\L	Do-	2d\	.
8Fny\	.	8A\	.	.	.
8E\	.	8G\	.	.	.
8D\J	.	8F\J	.	.	.
8.E\	.	8.G/	.	4c#X\	-mi-
16E\	-mi-	16G/	-mi-	.	.
2D/	-num	4A,</	-num	2d\	-num
.	.	4d\	lau-	.	.
2r	.	4c\	-dan-	2r	.
.	.	4A/	-tes	.	.
=36-	=36-	=36-	=36-	=36-	=36-
4r	.	4.B-\	be-	0r	.
*	*ij	*	*	*	*
4G\	lau-	.	.	.	.
.	.	8B-\	-ne-	.	.
4F\	-dan-	8.A\	-di-	.	.
.	.	16A\	-cunt	.	.
4D/	-tes	4.d\	Do-	.	.
4E\	be-	.	.	.	.
.	.	8c\	.	.	.
4C/	-ne-	2c\	.	.	.
2G\	-di-	.	.	.	.
.	.	4B-\	.	.	.
!	!	!LO:LB:g=original	!	!	!
=37-	=37-	=37-	=37-	=37-	=37-
4D/	-cunt	8A\L	.	2r	.
.	.	16B-\L	.	.	.
.	.	16c\J	.	.	.
8B-\L	Do-	8d\	.	.	.
8A\	.	8c\J	.	.	.
8G\	.	4.B-\	.	4r	.
8F\J	.	.	.	.	.
*	*	*	*	*	*ij
8.G\	.	.	.	4B-\	Be-
.	.	8B-\	-mi-	.	.
16G\	-mi-	.	.	.	.
2F\	-num	2c\	-num	4A/	-ne-
*	*Xij	*	*	*	*
.	.	.	.	4F/	-di-
!	!	!	!	!LO:LB:g=original	!
2C/	lau-	2r	.	4G/	-cunt
.	.	.	.	4A/	Do-
=38-	=38-	=38-	=38-	=38-	=38-
4BB-/	-dan-	2r	.	2B-\	-mi-
4GG/	-tes	.	.	.	.
4AA/	be-	4r	.	2A/	-num
*	*	*	*	*	*Xij
4FF/	-ne-	4f\	lau-	.	.
!LO:LB:g=original	!	!	!	!	!
2C/	-di-	4e-X\	-dan-	0r	.
.	.	4c\	-tes	.	.
4BB-/	-cunt	4.d\	be-	.	.
4B-\	lau-	.	.	.	.
.	.	8e-\	-ne-	.	.
=39-	=39-	=39-	=39-	=39-	=39-
4A\	-dan-	4c\	-di-	.	.
4F\	-tes	4A\	-cunt	.	.
4G\	be-	4B-\	.	.	.
4A\	-ne-	2c\	Do-	.	.
2B-\	-di-	.	.	1r	.
.	.	4B-\	.	.	.
2F\	-cunt	4.A\	.	.	.
.	.	8A\	-mi-	.	.
=40-	=40-	=40-	=40-	=40-	=40-
4.C/	Do-	2.G/	-num	2cny\	Lau-
8C/	-mi-	.	.	.	.
2GG/	-[num]	.	.	4B-\	-dan-
.	.	2d\	be-	4G/	-tes
4D/	be-	.	.	8.A/	be-
.	.	.	.	16F/	-ne-
4BB-/	-ne-	4d\	-ne-	4.B-/	-di-
!	!	!LO:LB:g=original	!	!	!
4E-X\	-di-	4.G/	-di-	.	.
.	.	.	.	8G/	-cunt
4BB-/	-cunt	.	.	8.c\	Be-
.	.	8G/	-cunt	.	.
.	.	.	.	16B-\	-ne-
=41-	=41-	=41-	=41-	=41-	=41-
2.F\	Do-	2.F/	Do-	8.A/	-di-
.	.	.	.	16A/	-cunt
.	.	.	.	2B-\	Do-
4F\	-mi-	4F/	-mi-	4A/	-mi-
1BB-/	-num	1F/	-num	1B-\	-num
!LO:PB:g=original	!	!	!	!	!
=42-	=42-	=42-	=42-	=42-	=42-
*M3/1	*	*M3/1	*	*M3/1	*
1r	.	1r	.	1r	.
1r	.	1r	.	1r	.
1BB-/	Nos	1B-\	No[s]	1d\	Nos
=43-	=43-	=43-	=43-	=43-	=43-
1B-\	quo-	1B-\	quo-	1d\	quo-
1.G\	-q(ue)	1.B-\	-q(ue)	1.eny\	-[que
2C/	mor-	2B-\	mor-	2e\	mor]-
!	!	!	!	!LO:LB:g=original	!
=44-	=44-	=44-	=44-	=44-	=44-
0F\	-ta-	0c\	-ta-	0f\	ta-
1FF/	-les	1c\	-les	1f\	-les
=45-	=45-	=45-	=45-	=45-	=45-
1r	.	1r	.	1r	.
1r	.	1r	.	1r	.
*	*	*	*ij	*	*
1FF/	Nos	1A\	Nos	1c\	nos
=46-	=46-	=46-	=46-	=46-	=46-
1F\	quo-	1A\	quo-	1c\	quo-
!	!	!LO:N:acc=#	!	!	!
1.D\	-q(ue)	1.Bn\	-que	1.d\	-q(ue)
2G\	mor-	2B\	mor-	2d\	mor-
=47-	=47-	=47-	=47-	=47-	=47-
0C/	-ta-	0c\	-ta-	0e\	-ta-
1C/	-les	1c\	-les	1e\	-les
*	*	*	*Xij	*	*
!	!	!LO:PB:g=original	!	!	!
=48-	=48-	=48-	=48-	=48-	=48-
1.F\	Gau-	1.c\	Gau-	1.f\	Gau-
2F\	-de-	2c\	-de-	2f\	-de-
2.C/	-a-	2.c\	-a-	2.e\	-a-
*custos:D	*	*	*	*	*
4C/	-mus	4c\	-mus	4e\	-mus
!LO:LB:g=original	!	!	!	!	!
=49-	=49-	=49-	=49-	=49-	=49-
1.D\	Ju-	1.A\	Ju-	1.d\	Ju-
2D/	-bi-	2A/	-bi-	2d\	-bi-
2.AA/	-le-	2.A/	-le-	2.c\	-le-
4AA/	-mus	4A/	-mus	4c\	-mus
=50-	=50-	=50-	=50-	=50-	=50-
*	*	*	*	*	*ij
1.BB-/	gau-	1.F/	Gau-	1.B-\	Gau-
2BB-/	-de-	2f\	-de-	2B-\	-de-
2.F\	-a-	2.f\	-a-	2.A/	-a-
4F\	-mus	4f\	-mus	4A/	-mus
!	!	!	!	!LO:PB:g=original	!
=51-	=51-	=51-	=51-	=51-	=51-
1.G\	Ju-	1.d\	Ju-	2.G/	Ju-
.	.	.	.	4G/	-bi-
.	.	.	.	0B-\	-le-
2G\	-bi-	2d\	-bi-	.	.
0E-X\	-le-	0e-X\	-le-	.	.
=52-	=52-	=52-	=52-	=52-	=52-
.	.	.	.	0B-\	-mus
*	*	*	*	*	*Xij
1E-\	-mus	1B-\,<	-mus	.	.
1D\	di-	1B-\	di-	1d\	di-
=53-	=53-	=53-	=53-	=53-	=53-
0.F\	-cen-	1B-\	-cen-	1d\	-cen-
.	.	2A/	.	2c\	.
.	.	2G/	.	2B-\	.
.	.	1A\	.	1c\	.
=54-	=54-	=54-	=54-	=54-	=54-
0BB-/	-tes	0.B-\	-tes	0.d\	-tes
1r	.	.	.	.	.
!	!	!LO:LB:g=original	!	!	!
=55-	=55-	=55-	=55-	=55-	=55-
!LO:N:vis=00	!	!LO:N:vis=00	!	!	!
00.r	.	00.r	.	1d\	reg-
.	.	.	.	1c\	-net
.	.	.	.	1B-\	Ma-
=56-	=56-	=56-	=56-	=56-	=56-
.	.	.	.	0A\	-ri-
.	.	.	.	1A\	-a
=57-	=57-	=57-	=57-	=57-	=57-
!	!	!	!	!LO:N:vis=00	!
1C/	reg-	1e-X\	reg-	00.r	.
1D\	-net	1d\	-net	.	.
1E-X\	Ma-	1c\	Ma-	.	.
!LO:LB:g=original	!	!	!	!	!
=58-	=58-	=58-	=58-	=58-	=58-
1.G\	-ri-	1.B-\	-ri-	.	.
2G\	-a	2G/	-a	.	.
1F\	in	2A/	in	.	.
.	.	2F/	ae-	.	.
=59-	=59-	=59-	=59-	=59-	=59-
!	!	!	!	!LO:N:vis=00	!
1C/	ae-	0c\	-ter-	00.r	.
0G\	-ter-	.	.	.	.
!	!	!LO:N:acc=#	!	!	!
.	.	1Bn\	.	.	.
=60-	=60-	=60-	=60-	=60-	=60-
0.C/	-num	0.c\	-num	.	.
=61-	=61-	=61-	=61-	=61-	=61-
1GG/	reg-	1B-y\	reg-	1d\	reg-
1AA/	-net	1A\	-net	1c\	-net
1BB-/	Ma-	1G/	Ma-	1B-\	Ma-
=62-	=62-	=62-	=62-	=62-	=62-
0D\	-ri-	0F#X/	-ri-	0A\	-ri-
1D\	-a	1F#/	-a	1A\	-a
=63-	=63-	=63-	=63-	=63-	=63-
*	*ij	*	*ij	*	*ij
1BB-/	reg-	1B-\	reg-	1d\	re-
1C/	-net	1G/	-net	1c\	-gnet
1D\	Ma-	1Fny/	Ma-	1B-\	Ma-
!	!	!LO:LB:g=original	!	!LO:LB:g=original	!
=64-	=64-	=64-	=64-	=64-	=64-
1.F\	-ri-	1.F/	-ri-	1.A\	-ri-
2F\	-a	2F/	-a	2A\	-a
*	*Xij	*	*Xij	*	*Xij
!	!	!	!	!LO:N:acc=#	!
1D\	in	1G/	in	2.Bn\	in
.	.	.	.	4B\	ae-
=65-	=65-	=65-	=65-	=65-	=65-
*col	*	*	*	*	*
1C/	ae-	1G/	ae-	0c\	-ter-
0G\	-ter-	0G/	-ter-	.	.
!	!	!	!	!LO:N:acc=#	!
.	.	.	.	1Bn\	.
*Xcol	*	*	*	*	*
=66-	=66-	=66-	=66-	=66-	=66-
0.C/	-num	0.G/	-num	0.c\	-num
!LO:LB:g=original	!	!	!	!	!
=67-	=67-	=67-	=67-	=67-	=67-
*	*	*	*ij	*	*
1C/	reg-	1G/	reg-	1c\	reg-
1BB-/	-net	1G/	-net	1d\	-net
1AA/	Ma-	1A\	Ma-	1c\	Ma-
=68-	=68-	=68-	=68-	=68-	=68-
0GG/	-ri-	0B-\	-ri-	0d\	-ri-
1GG/	-a	1B-\	-a	1d\	-a
=69-	=69-	=69-	=69-	=69-	=69-
*	*ij	*	*	*	*
1G\	reg-	1B-\	in	1d\	[[in
1F\	-net	1A\	ae-	1d\	ae-
1Eny\	Ma-	1e\	-ter-	1c#X\	-ter]]
=70-	=70-	=70-	=70-	=70-	=70-
1.D\	-ri-	1.A\	-num	1.d\	.
2BB-/	-a	2B-\	.	2d\	.
*	*Xij	*	*Xij	*	*
1C/	in	2.G/	in	1cny\	in
.	.	4G/	ae-	.	.
=71-	=71-	=71-	=71-	=71-	=71-
1D\	ae-	0B-\	-ter-	1F/	ae-
*lig	*	*	*	*lig	*
1E-X\	-ter-	.	.	1F/	-ter-
1F\	.	1A\	.	1f\	.
*Xlig	*	*	*	*Xlig	*
!	!	!LO:LB:g=original	!	!LO:LB:g=original	!
=72-	=72-	=72-	=72-	=72-	=72-
0BB-/	-num	0.B-\	-num	0.f\	-num
1BB-/	Ma-	.	.	.	.
=73-	=73-	=73-	=73-	=73-	=73-
1.D\	-ri-	1r	.	1r	.
.	.	1r	.	1r	.
2C/	-a	.	.	.	.
2D/	in	1B-\	in	1d\	Ma-
2Eny\	ae-	.	.	.	.
=74-	=74-	=74-	=74-	=74-	=74-
0.F\	-ter-	1.A\	ae-	1.c\	-ri-
.	.	2G/	.	2B-\	-a
.	.	2A/	.	2c\	in
.	.	2B-\	.	2d\	ae-
!LO:LB:g=original	!	!	!	!	!
=75-	=75-	=75-	=75-	=75-	=75-
1C/	-num	1c\	-ter-	0e-X\	-ter-
1C/	in	1c\	-num	.	.
!	!	!	!	!LO:N:acc=#	!
1G\	ae-	1r	.	1Bn\	.
=76-	=76-	=76-	=76-	=76-	=76-
*	*	*	*	*col	*
2C/	-ter-	1r	.	1c\	.
2D/	.	.	.	.	.
2E-X\	.	1g\	in	0G/	-num
2F\	.	.	.	.	.
2G\	.	1d\	ae-	.	.
2GG/	.	.	.	.	.
*	*	*	*	*Xcol	*
=77-	=77-	=77-	=77-	=77-	=77-
0C/	-num	0e-X\	-ter-	1r	.
.	.	.	.	1g\	reg-
*	*ij	*	*	*	*
!LO:N:acc=#	!	!	!	!	!
1BBn/	.	1d\	.	1d\	-nat
=78-	=78-	=78-	=78-	=78-	=78-
0C/	in	0c\	.	0e-X\	reg-
!	!	!LO:N:acc=#	!	!	!
1G\	ae-	1Bn\	.	1d\	-nat
=79-	=79-	=79-	=79-	=79-	=79-
*M2/1	*	*M2/1	*	*M2/1	*
*met(cC)	*	*met(C)	*	*met(C)	*
1C/	-ter-	1G/	.	4d\	in
.	.	.	.	8c\L	ae-
.	.	.	.	8B-\J	.
.	.	.	.	2c\	-ter-
!LO:TX:b:i:t=S.B.P.	!	!	!	!	!
!LO:N:vis=0	!	!LO:N:vis=0	!	!LO:N:vis=0	!
1GG/;<	-num	1G/;	-num	1B-\;<	-num
==	==	==	==	==	==
*-	*-	*-	*-	*-	*-
!!!system-decoration: [s1,s2,s3]
!!!RDF**kern: > = above
!!!RDF**kern: < = below
!!!EED: Andrzej Borzym
!!!EST: 2021-07-04
!!!AIN: 3 empty
!!!ENC: Andrzej Gręziak
!!!END: 2021-06-23
